X: 605
T: Ner de xin
%%abc-version 2.0
%%abcx-abcm2ps-target-version 5.9.1 (29 Sep 2008)
%%abc-creator hum2abc beta
%%abcx-conversion-date 2013/10/02 07:52:30
%%abc-edited-by Helmut Schaffrath
%%humdrum-veritas 2903069707
%%humdrum-veritas-data 3757529882
%%continueall 1
%%barnumbers 0
L: 1/8
M: 2/4
K: G
G ED2 [I:setbarnb 1]| 
G ED2 | 
A A/ A/ A A/ A/ | 
A e d d | 
B d E E/ G/ | 
A4 | 
A> B d d | 
e2d B | 
A A d A | 
G> E D E | 
D4 | 
G/ G/ E/ G/ A/ A/ A/ B/ | 
A ED2 | 
G E/ G/ A A | 
G G/ E/D2 | 
A> B d d | 
A A B A | 
G G/ E/D2- | 
D2z2 |]  



